frontend/public/svg/interface/ruler.svg

<svg width="150" height="147" viewBox="0 0 150 147" fill="none" xmlns="http://www.w3.org/2000/svg">
<g clip-path="url(#clip0)">
<path d="M29.1996 146.766C27.9644 146.892 26.717 146.724 25.5587 146.278C24.4006 145.83 23.3644 145.116 22.5348 144.192C15.8362 137.26 9.21526 130.253 2.67178 123.171C0.688781 121.02 0.971248 119.133 3.15701 116.707C11.0972 107.895 19.0506 99.0952 27.0171 90.3063C48.0494 67.1269 70.9907 45.871 93.5675 24.2471C101.252 16.8868 108.84 9.42604 116.45 1.98859C117.625 0.796834 119.206 0.0901938 120.878 0.00886453C122.55 -0.0724646 124.192 0.477471 125.477 1.54955C128.106 3.75584 130.6 6.13247 133.06 8.53044C137.425 12.7863 141.93 16.9281 145.986 21.467C150.075 26.0421 151.142 30.7138 146.532 35.7785C123.009 61.6289 98.3828 86.3736 72.6537 110.013C59.9772 121.612 47.1424 133.039 34.3848 144.55C32.8838 145.905 31.4268 147.323 29.1996 146.766ZM121.607 7.91006C83.039 45.0259 44.11 80.8232 9.0522 120.783C16.0105 126.78 22.1111 133.892 30.2853 138.737L34.9303 133.709C34.434 133.315 33.8037 132.872 33.2459 132.355C32.5904 131.757 31.9729 131.119 31.397 130.444C29.7969 128.544 29.5449 126.668 30.6624 125.354C31.9133 123.883 33.8678 123.819 36.0393 125.432C37.5242 126.532 38.8094 127.903 40.2826 129.243C40.9764 128.645 41.6657 128.111 42.2831 127.504C42.9503 126.847 43.5502 126.122 43.788 125.859C42.3304 124.162 41.0976 122.735 39.8745 121.301C38.7 119.923 38.1292 118.415 39.2979 116.784C40.2198 115.496 41.9275 115.309 43.7971 116.448C45.7555 117.642 47.5674 119.076 49.6404 120.546L53.703 116.695C52.9414 116.074 52.2279 115.396 51.5684 114.667C49.2272 111.592 46.8969 108.506 44.6723 105.347C44.4587 105.084 44.3011 104.78 44.209 104.455C44.117 104.128 44.0925 103.787 44.137 103.451C44.1816 103.115 44.2943 102.792 44.4683 102.501C44.6421 102.211 44.8736 101.958 45.1485 101.76C46.3521 100.777 47.6555 101.01 48.8054 101.926C49.5756 102.56 50.3014 103.247 50.9776 103.98C53.4879 106.617 55.9756 109.276 58.6608 112.128L60.9217 109.697C59.604 108.13 58.3738 106.847 57.3548 105.412C55.9393 103.419 56.0326 101.551 57.4041 100.304C58.6699 99.1528 60.4073 99.1956 62.2387 100.65C63.706 101.816 65.0193 103.176 66.7585 104.778L70.2846 100.282C69.0511 99.2674 67.8727 98.1886 66.7539 97.0489C65.1675 95.2868 65.0374 93.5953 66.1301 92.2497C67.2405 90.8826 68.9274 90.6994 70.9454 91.8611C71.8854 92.4472 72.7807 93.1019 73.6235 93.82C74.373 94.4139 75.0733 95.0699 75.7665 95.6728L80.3959 90.8658C78.1492 87.997 75.8753 85.1393 73.6585 82.2381C72.9212 81.2739 72.0389 80.2714 71.7584 79.1518C71.4824 78.0315 71.6392 76.8483 72.1963 75.8381C73.032 74.5876 74.5525 74.6433 75.7555 75.5266C76.7933 76.3497 77.7676 77.2485 78.6707 78.2167C81.1597 80.7021 83.624 83.2121 86.2671 85.8833L89.7006 82.5587C89.0249 81.5776 88.5216 80.8678 88.0409 80.1432C87.4546 79.337 86.9182 78.4958 86.4343 77.6241C85.4483 75.651 85.7061 73.6895 86.9732 72.7582C88.265 71.8095 90.1437 72.145 91.7348 73.7296C92.803 74.7923 93.7579 75.9683 94.8858 77.2311L98.2474 74.0417C97.6377 73.0322 97.1804 72.2933 96.7379 71.5395C96.2501 70.8006 95.8128 70.0287 95.428 69.2309C94.5353 67.101 94.9946 65.1317 96.5151 64.1798C97.9902 63.2545 99.6182 63.5803 101.284 65.203C102.134 66.0312 102.912 66.9339 104.03 68.1326L106.464 65.6627C104.446 62.7488 102.649 60.2303 100.94 57.6549C99.5929 55.6254 99.5417 53.8226 100.657 52.7981C101.899 51.6532 103.883 51.885 105.73 53.5273C106.787 54.5061 107.785 55.5467 108.718 56.6434C109.71 57.7637 110.634 58.9455 111.698 60.2375L115.866 55.5814C114.815 53.3797 113.858 51.5107 113.022 49.5886C112.32 47.9736 112.622 46.4668 114.168 45.5175C115.794 44.5182 117.168 45.3115 118.279 46.5484C119.232 47.6098 120.068 48.7748 121.16 50.1515L124.145 47.0082C123.542 46.1391 123.09 45.5187 122.672 44.8711C122.189 44.1283 121.7 43.3869 121.278 42.6092C120.088 40.4107 120.123 38.7172 121.333 37.7524C122.676 36.6832 124.282 37.1514 126.201 39.1965C127.001 40.0493 127.769 40.9319 128.676 41.9382L131.367 38.8643C130.032 36.8018 128.869 35.0481 127.752 33.2672C126.867 31.9964 126.086 30.6563 125.417 29.26C124.843 27.8917 124.791 26.3168 126.235 25.3681C126.844 24.9617 127.571 24.7714 128.299 24.8277C129.029 24.8841 129.718 25.1839 130.256 25.6789C130.941 26.2412 131.581 26.8555 132.171 27.5167C133.744 29.225 135.285 30.9618 137.004 32.8715L140.068 29.4031L121.607 7.91006Z" fill="black"/>
</g>
<defs>
<clipPath id="clip0">
<rect width="149" height="147" fill="white" transform="translate(0.777344)"/>
</clipPath>
</defs>
</svg>

<svg xmlns="http://www.w3.org/2000/svg" width="150" height="147" fill="none" viewBox="0 0 150 147"><g clip-path="url(#a)"><path fill="#000" d="M29.2 146.766a7.89 7.89 0 0 1-6.665-2.574 1292 1292 0 0 1-19.863-21.021c-1.983-2.151-1.7-4.038.485-6.464q11.91-13.218 23.86-26.4c21.032-23.18 43.974-44.436 66.55-66.06 7.685-7.36 15.273-14.821 22.883-22.258a6.674 6.674 0 0 1 9.027-.44c2.629 2.207 5.123 4.583 7.583 6.981 4.365 4.256 8.87 8.398 12.926 12.937 4.089 4.575 5.156 9.247.546 14.312a1171 1171 0 0 1-73.878 74.234c-12.677 11.599-25.512 23.026-38.27 34.537-1.5 1.355-2.957 2.773-5.184 2.216M121.607 7.91C83.039 45.026 44.11 80.823 9.052 120.783c6.959 5.997 13.06 13.109 21.233 17.954l4.645-5.028c-.496-.394-1.126-.837-1.684-1.354a21 21 0 0 1-1.849-1.911c-1.6-1.9-1.852-3.776-.735-5.09 1.251-1.471 3.206-1.535 5.377.078 1.485 1.1 2.77 2.471 4.244 3.811.693-.598 1.383-1.132 2-1.739.667-.657 1.267-1.382 1.505-1.645-1.458-1.697-2.69-3.124-3.913-4.558-1.175-1.378-1.746-2.886-.577-4.517.922-1.288 2.63-1.475 4.5-.336 1.957 1.194 3.77 2.628 5.842 4.098l4.063-3.851a19.5 19.5 0 0 1-2.135-2.028c-2.34-3.075-4.671-6.161-6.896-9.32a2.5 2.5 0 0 1-.535-1.896 2.5 2.5 0 0 1 1.011-1.691c1.204-.983 2.508-.75 3.657.166q1.156.953 2.173 2.054c2.51 2.637 4.998 5.296 7.683 8.148l2.26-2.431c-1.317-1.567-2.547-2.85-3.566-4.285-1.416-1.993-1.322-3.861.05-5.108 1.265-1.151 3.002-1.108 4.834.346 1.467 1.166 2.78 2.526 4.52 4.128l3.526-4.496a45 45 0 0 1-3.531-3.233c-1.587-1.762-1.717-3.454-.624-4.8 1.11-1.366 2.797-1.55 4.815-.388.94.586 1.836 1.24 2.679 1.959.749.594 1.45 1.25 2.142 1.853l4.63-4.807c-2.247-2.869-4.52-5.727-6.737-8.628-.738-.964-1.62-1.967-1.9-3.086a4.6 4.6 0 0 1 .437-3.314c.836-1.25 2.356-1.195 3.56-.311a26.5 26.5 0 0 1 2.915 2.69c2.489 2.485 4.953 4.995 7.596 7.666l3.434-3.324c-.676-.981-1.18-1.691-1.66-2.416a25 25 0 0 1-1.607-2.519c-.986-1.973-.728-3.934.54-4.866 1.291-.948 3.17-.613 4.76.972 1.069 1.062 2.024 2.238 3.152 3.501l3.361-3.19c-.61-1.009-1.067-1.748-1.51-2.501a20 20 0 0 1-1.309-2.31c-.893-2.129-.433-4.098 1.087-5.05 1.475-.926 3.103-.6 4.769 1.023.85.828 1.628 1.73 2.746 2.93l2.434-2.47c-2.018-2.914-3.815-5.433-5.524-8.008-1.347-2.03-1.398-3.832-.283-4.857 1.242-1.145 3.226-.913 5.073.73a36 36 0 0 1 2.988 3.115c.992 1.12 1.916 2.303 2.98 3.594l4.168-4.656c-1.051-2.201-2.008-4.07-2.844-5.992-.702-1.615-.4-3.122 1.146-4.072 1.626-.999 3-.206 4.111 1.031.953 1.062 1.789 2.227 2.881 3.603l2.985-3.143c-.603-.869-1.055-1.49-1.473-2.137-.483-.743-.972-1.484-1.394-2.262-1.19-2.198-1.155-3.892.055-4.857 1.343-1.069 2.949-.6 4.868 1.444.8.853 1.568 1.736 2.475 2.742l2.691-3.074c-1.335-2.062-2.498-3.816-3.615-5.597a29 29 0 0 1-2.335-4.007c-.574-1.368-.626-2.943.818-3.892a3.266 3.266 0 0 1 4.021.31 17 17 0 0 1 1.915 1.839c1.573 1.708 3.114 3.445 4.833 5.354l3.064-3.468z"/></g><defs><clipPath id="a"><path fill="#fff" d="M.777 0h149v147h-149z"/></clipPath></defs></svg>
